assets/img/add-button.svg

<?xml version="1.0" encoding="UTF-8"?>
<svg width="20px" height="20px" viewBox="0 0 20 20" version="1.1" xmlns="http://www.w3.org/2000/svg" xmlns:xlink="http://www.w3.org/1999/xlink">
    <!-- Generator: Sketch 64 (93537) - https://sketch.com -->
    <title>add-button</title>
    <desc>Created with Sketch.</desc>
    <g id="Welcome" stroke="none" stroke-width="1" fill="none" fill-rule="evenodd">
        <g id="lpw-addons-1.1" transform="translate(-439.000000, -542.000000)" fill="#018E37" fill-rule="nonzero">
            <g id="add-button" transform="translate(439.000000, 542.000000)">
                <path d="M10,0 C4.4771525,0 0,4.4771525 0,10 C0,15.5228475 4.4771525,20 10,20 C15.5228475,20 20,15.5228475 20,10 C20,4.4771525 15.5228475,0 10,0 Z M14.2857143,10.7142857 L10.7142857,10.7142857 L10.7142857,14.2857143 C10.7142857,14.6802034 10.3944891,15 10,15 C9.60551089,15 9.28571429,14.6802034 9.28571429,14.2857143 L9.28571429,10.7142857 L5.71428571,10.7142857 C5.31979661,10.7142857 5,10.3944891 5,10 C5,9.60551089 5.31979661,9.28571429 5.71428571,9.28571429 L9.28571429,9.28571429 L9.28571429,5.71428571 C9.28571429,5.31979661 9.60551089,5 10,5 C10.3944891,5 10.7142857,5.31979661 10.7142857,5.71428571 L10.7142857,9.28571429 L14.2857143,9.28571429 C14.6802034,9.28571429 15,9.60551089 15,10 C15,10.3944891 14.6802034,10.7142857 14.2857143,10.7142857 Z" id="Shape"></path>
            </g>
        </g>
    </g>
</svg>

<svg width="20" height="20" xmlns="http://www.w3.org/2000/svg"><path d="M10 0C4.477 0 0 4.477 0 10s4.477 10 10 10 10-4.477 10-10S15.523 0 10 0zm4.286 10.714h-3.572v3.572a.714.714 0 11-1.428 0v-3.572H5.714a.714.714 0 110-1.428h3.572V5.714a.714.714 0 111.428 0v3.572h3.572a.714.714 0 010 1.428z" fill="#018E37"/></svg>
